X:88
T:Priest in his Boots, The
M:6/8
L:1/8
Q:120
R:Jig (Key of D)
K:D
"A"efe efe | e2d cBA | "D"dcd fed | "A"cAc ecd |
efe efe | e2d cBA |1 "D"dcd f/g/af | "A"gec "D"dcd :|2
"D"dcd f/g/af |"A"gec "D"d2f/g/ :|:
"D"afa "G"geg | "D"fdf "A"ecA | "D"dcd fed | "A"cAc efg |
"D"afa "G"geg | "D"fdf "A"ecA |1 "D"dcd f/2g/2af | "A"gec "D"d2f/2g/2 :|2
"D"dcd f/2g/2af | "A"gec "D"dcd :|]
